neru-light-classic/22x22/panel/google-chrome-tray.svg

<?xml version="1.0" encoding="UTF-8" standalone="no"?>
<svg
   xmlns:dc="http://purl.org/dc/elements/1.1/"
   xmlns:cc="http://creativecommons.org/ns#"
   xmlns:rdf="http://www.w3.org/1999/02/22-rdf-syntax-ns#"
   xmlns:svg="http://www.w3.org/2000/svg"
   xmlns="http://www.w3.org/2000/svg"
   xmlns:sodipodi="http://sodipodi.sourceforge.net/DTD/sodipodi-0.dtd"
   xmlns:inkscape="http://www.inkscape.org/namespaces/inkscape"
   width="22"
   height="22"
   version="1.1"
   id="svg11"
   sodipodi:docname="google-chrome-tray.svg"
   inkscape:version="0.92.4 5da689c313, 2019-01-14">
  <metadata
     id="metadata15">
    <rdf:RDF>
      <cc:Work
         rdf:about="">
        <dc:format>image/svg+xml</dc:format>
        <dc:type
           rdf:resource="http://purl.org/dc/dcmitype/StillImage" />
      </cc:Work>
    </rdf:RDF>
  </metadata>
  <sodipodi:namedview
     pagecolor="#ffffff"
     bordercolor="#666666"
     borderopacity="1"
     objecttolerance="10"
     gridtolerance="10"
     guidetolerance="10"
     inkscape:pageopacity="0"
     inkscape:pageshadow="2"
     inkscape:window-width="640"
     inkscape:window-height="515"
     id="namedview13"
     showgrid="false"
     inkscape:zoom="10.727273"
     inkscape:cx="11"
     inkscape:cy="11"
     inkscape:window-x="0"
     inkscape:window-y="28"
     inkscape:window-maximized="0"
     inkscape:current-layer="g9" />
  <defs
     id="defs3">
    <style
       id="current-color-scheme"
       type="text/css">
   .ColorScheme-Text { color:#1e333d; } .ColorScheme-Highlight { color:#3fb7ff; }
  </style>
  </defs>
  <g
     id="g9">
    <path
       style="color:#1e333d;fill:#1e333d;fill-opacity:1"
       class="ColorScheme-Text"
       d="M 11,3 A 8,8 0 0 0 5.3965,5.293 l 2.7558,4.773 A 3,3 0 0 1 11,8 h 7.412 A 8,8 0 0 0 11,3 Z M 4.6992,6.0859 A 8,8 0 0 0 3,11 8,8 0 0 0 8.8652,18.701 L 11.617,13.934 A 3,3 0 0 1 11,14 3,3 0 0 1 8.4062,12.498 L 8.4023,12.5 Z M 13.23,9 A 3,3 0 0 1 14,11 3,3 0 0 1 13.596,12.498 L 13.598,12.5 9.8945,18.914 A 8,8 0 0 0 11,19 8,8 0 0 0 19,11 8,8 0 0 0 18.74,9 Z"
       id="path5"
       inkscape:connector-curvature="0" />
    <path
       style="color:#1e333d;fill:#1e333d;fill-opacity:1"
       class="ColorScheme-Text"
       d="M 10.999823,9.0000004 A 1.9999646,1.9999646 0 0 0 9,10.999823 1.9999646,1.9999646 0 0 0 10.999823,13 1.9999646,1.9999646 0 0 0 13,10.999823 1.9999646,1.9999646 0 0 0 10.999823,9.0000004 Z"
       id="path7"
       inkscape:connector-curvature="0" />
  </g>
</svg>

<svg xmlns="http://www.w3.org/2000/svg" width="22" height="22" version="1.1" id="svg11"><defs id="defs3"><style id="current-color-scheme" type="text/css">.ColorScheme-Text{color:#1e333d}</style></defs><g id="g9"><path class="ColorScheme-Text" d="M11 3a8 8 0 0 0-5.604 2.293l2.756 4.773A3 3 0 0 1 11 8h7.412A8 8 0 0 0 11 3zM4.7 6.086A8 8 0 0 0 3 11a8 8 0 0 0 5.865 7.701l2.752-4.767A3 3 0 0 1 11 14a3 3 0 0 1-2.594-1.502l-.004.002zM13.23 9a3 3 0 0 1 .77 2 3 3 0 0 1-.404 1.498l.002.002-3.704 6.414A8 8 0 0 0 11 19a8 8 0 0 0 8-8 8 8 0 0 0-.26-2z" id="path5" color="#1e333d" fill="#1e333d" fill-opacity="1"/><path class="ColorScheme-Text" d="M11 9a2 2 0 0 0-2 2 2 2 0 0 0 2 2 2 2 0 0 0 2-2 2 2 0 0 0-2-2z" id="path7" color="#1e333d" fill="#1e333d" fill-opacity="1"/></g></svg>
